svgs/duotone/forklift.svg

<svg xmlns="http://www.w3.org/2000/svg" viewBox="0 0 640 512"><!--! Font Awesome Pro 6.4.0 by @fontawesome - https://fontawesome.com License - https://fontawesome.com/license (Commercial License) Copyright 2023 Fonticons, Inc. --><defs><style>.fa-secondary{opacity:.4}</style></defs><path class="fa-primary" d="M160 160l96 96h94L281.4 64H160v96zm-64 0V48c0-26.5 21.5-48 48-48H292.7c20.3 0 38.4 12.8 45.2 31.9l75.3 210.8c1.8 5.2 2.8 10.6 2.8 16.1v94.8c-20.3-20.7-48.7-33.6-80-33.6c-56.4 0-103.1 41.7-110.9 96H190.9c-7.8-54.3-54.4-96-110.9-96c-31.3 0-59.7 12.9-80 33.6V208c0-26.5 21.5-48 48-48H96z"/><path class="fa-secondary" d="M544 32c0-17.7-14.3-32-32-32s-32 14.3-32 32V416c0 17.7 14.3 32 32 32h96c17.7 0 32-14.3 32-32s-14.3-32-32-32H544V32zM160 432A80 80 0 1 0 0 432a80 80 0 1 0 160 0zm256 0a80 80 0 1 0 -160 0 80 80 0 1 0 160 0z"/></svg>

<svg xmlns="http://www.w3.org/2000/svg" viewBox="0 0 640 512"><!--! Font Awesome Pro 6.3.0 by @fontawesome - https://fontawesome.com License - https://fontawesome.com/license (Commercial License) Copyright 2023 Fonticons, Inc. --><defs><style>.fa-secondary{opacity:.4}</style></defs><path class="fa-primary" d="M96 160V48C96 21.49 117.5 0 144 0H292.7C313 0 331.1 12.75 337.9 31.86L413.2 242.6C415.1 247.8 416 253.3 416 258.8V353.6C395.7 332.9 367.3 320 336 320C279.6 320 232.9 361.7 225.1 416H190.9C183.1 361.7 136.4 320 80 320C48.66 320 20.33 332.9 0 353.6V208C0 181.5 21.49 160 48 160H96zM256 256H350L281.4 64H160V160L256 256z"/><path class="fa-secondary" d="M544 384H608C625.7 384 640 398.3 640 416C640 433.7 625.7 448 608 448H512C494.3 448 480 433.7 480 416V32C480 14.33 494.3 0 512 0C529.7 0 544 14.33 544 32V384zM160 432C160 476.2 124.2 512 80 512C35.82 512 0 476.2 0 432C0 387.8 35.82 352 80 352C124.2 352 160 387.8 160 432zM416 432C416 476.2 380.2 512 336 512C291.8 512 256 476.2 256 432C256 387.8 291.8 352 336 352C380.2 352 416 387.8 416 432z"/></svg>
